icons/Others/plant-line.svg

<svg viewBox="0 0 24 24" xmlns="http://www.w3.org/2000/svg"><path d="M5.99805 2C8.68733 2 11.0224 3.51653 12.1947 5.74104C13.372 4.08252 15.3086 3 17.498 3H20.998V5.5C20.998 9.08985 18.0879 12 14.498 12H12.998V13H17.998V20C17.998 21.1046 17.1026 22 15.998 22H7.99805C6.89348 22 5.99805 21.1046 5.99805 20V13H10.998V11H8.99805C5.13205 11 1.99805 7.86599 1.99805 4V2H5.99805ZM15.998 15H7.99805V20H15.998V15ZM18.998 5H17.498C15.0128 5 12.998 7.01472 12.998 9.5V10H14.498C16.9833 10 18.998 7.98528 18.998 5.5V5ZM5.99805 4H3.99805C3.99805 6.76142 6.23662 9 8.99805 9H10.998C10.998 6.23858 8.75947 4 5.99805 4Z"/></svg>

<svg xmlns="http://www.w3.org/2000/svg" viewBox="0 0 24 24">
    <g>
        <path fill="none" d="M0 0H24V24H0z"/>
        <path d="M6 2c2.69 0 5.024 1.517 6.197 3.741C13.374 4.083 15.31 3 17.5 3H21v2.5c0 3.59-2.91 6.5-6.5 6.5H13v1h5v7c0 1.105-.895 2-2 2H8c-1.105 0-2-.895-2-2v-7h5v-2H9c-3.866 0-7-3.134-7-7V2h4zm10 13H8v5h8v-5zm3-10h-1.5C15.015 5 13 7.015 13 9.5v.5h1.5c2.485 0 4.5-2.015 4.5-4.5V5zM6 4H4c0 2.761 2.239 5 5 5h2c0-2.761-2.239-5-5-5z"/>
    </g>
</svg>
